X:5
T:Erin Forever
S:American Veteran Fifer, #5
M:6/8
L:1/8
Q:280
K:D 
%%MIDI program 72
%%MIDI transpose 8
%%MIDI ratio 3 1
A | DFD F2A | d2f ecA | G2e F2d | E2F GFE |
DFD F2A | d2f ecA | faf gec | dfe d2 :|
|: f/g/ | a2f d2d | A2a agf | g2e c2A | G2g gfe |
f2d g2e | a2f b3 | gfe ABc | dfe d2 :|


